assets/img/icons/duotone-icons/General/Scale.svg

<?xml version="1.0" encoding="UTF-8"?>
<svg width="24px" height="24px" viewBox="0 0 24 24" version="1.1" xmlns="http://www.w3.org/2000/svg" xmlns:xlink="http://www.w3.org/1999/xlink">
    <!-- Generator: Sketch 52.2 (67145) - http://www.bohemiancoding.com/sketch -->
    <title>Stockholm-icons / General / Scale</title>
    <desc>Created with Sketch.</desc>
    <g id="Stockholm-icons-/-General-/-Scale" stroke="none" stroke-width="1" fill="none" fill-rule="evenodd">
        <polygon id="Bound" points="0 0 24 0 24 24 0 24"></polygon>
        <path d="M10,14 L5,14 C4.33333333,13.8856181 4,13.5522847 4,13 C4,12.4477153 4.33333333,12.1143819 5,12 L12,12 L12,19 C12,19.6666667 11.6666667,20 11,20 C10.3333333,20 10,19.6666667 10,19 L10,14 Z M15,9 L20,9 C20.6666667,9.11438192 21,9.44771525 21,10 C21,10.5522847 20.6666667,10.8856181 20,11 L13,11 L13,4 C13,3.33333333 13.3333333,3 14,3 C14.6666667,3 15,3.33333333 15,4 L15,9 Z" id="Combined-Shape" fill="#335EEA"></path>
        <path d="M3.87867966,18.7071068 L6.70710678,15.8786797 C7.09763107,15.4881554 7.73079605,15.4881554 8.12132034,15.8786797 C8.51184464,16.2692039 8.51184464,16.9023689 8.12132034,17.2928932 L5.29289322,20.1213203 C4.90236893,20.5118446 4.26920395,20.5118446 3.87867966,20.1213203 C3.48815536,19.7307961 3.48815536,19.0976311 3.87867966,18.7071068 Z M16.8786797,5.70710678 L19.7071068,2.87867966 C20.0976311,2.48815536 20.7307961,2.48815536 21.1213203,2.87867966 C21.5118446,3.26920395 21.5118446,3.90236893 21.1213203,4.29289322 L18.2928932,7.12132034 C17.9023689,7.51184464 17.2692039,7.51184464 16.8786797,7.12132034 C16.4881554,6.73079605 16.4881554,6.09763107 16.8786797,5.70710678 Z" id="Combined-Shape" fill="#335EEA" opacity="0.3"></path>
    </g>
</svg>

<svg width="24" height="24" viewBox="0 0 24 24" xmlns="http://www.w3.org/2000/svg"><g fill="none" fill-rule="evenodd"><path d="M0 0h24v24H0z"/><path d="M10 14H5c-.667-.114-1-.448-1-1s.333-.886 1-1h7v7c0 .667-.333 1-1 1s-1-.333-1-1v-5zm5-5h5c.667.114 1 .448 1 1s-.333.886-1 1h-7V4c0-.667.333-1 1-1s1 .333 1 1v5z" fill="#335EEA"/><path d="M3.879 18.707l2.828-2.828a1 1 0 011.414 1.414L5.293 20.12a1 1 0 01-1.414-1.414zm13-13l2.828-2.828a1 1 0 111.414 1.414L18.293 7.12a1 1 0 11-1.414-1.414z" fill="#335EEA" opacity=".3"/></g></svg>
